X:096
T:Lady Hamilton’s New Waltz TS.096
M:3/8
L:1/8
Q:3/8=50
S:Thomas Sands’ MS,1810,Lincolnshire
R:waltz
O:England;Lincolnshire
Z:vmp.Ruairidh Greig, 2011
K:G
D|G/F/G/A/B/c/|.d(dB)|.e(ec)|.d(dB)|G/F/G/A/B/c/|.d(dB)|A/B/c/A/G/F/|G2:|
|:B|(Ad).d|(BG).G|(Ad).d|B2B|(Ad).d|(BG).G|A/B/c/A/G/F/|G2:|
|:d|(d/e/)cc|(c/d/)BB|(B/c/)AA|A2d|(d/e/)cc|(c/d/)BB|A/B/c/A/G/F/|G2:|]

